build/images/slider/stem-2.svg

<svg width="377" height="102" viewBox="0 0 377 102" fill="none" xmlns="http://www.w3.org/2000/svg">
<path d="M375 87L2 87" stroke="#00A79E" stroke-width="3" stroke-miterlimit="10" stroke-linecap="round" stroke-linejoin="round"/>
<path d="M259.197 101.145H162.678" stroke="#00A79E" stroke-width="3" stroke-miterlimit="10" stroke-linecap="round" stroke-linejoin="round"/>
<path d="M144.596 101.145H107.51" stroke="#00A79E" stroke-width="3" stroke-miterlimit="10" stroke-linecap="round" stroke-linejoin="round"/>
<path d="M184.262 85.7365V80.1816" stroke="#00A79E" stroke-width="3" stroke-miterlimit="10" stroke-linecap="round" stroke-linejoin="round"/>
<path d="M196.693 85.7365V73.3027" stroke="#00A79E" stroke-width="3" stroke-miterlimit="10" stroke-linecap="round" stroke-linejoin="round"/>
<path d="M31.9863 86.0712V49.9883" stroke="#00A79E" stroke-width="3" stroke-miterlimit="10" stroke-linecap="round" stroke-linejoin="round"/>
<path d="M35.8027 42.1695C35.8027 46.6841 31.9868 50.3391 31.9868 50.3391C31.9868 50.3391 28.1709 46.6841 28.1709 42.1695C28.1709 37.655 31.9868 34 31.9868 34C31.9868 34 35.8027 37.655 35.8027 42.1695Z" stroke="#00A79E" stroke-width="3" stroke-miterlimit="10" stroke-linecap="round" stroke-linejoin="round"/>
<path d="M26.8927 51.0472C30.6084 53.6174 31.4434 58.8329 31.4434 58.8329C31.4434 58.8329 26.2664 59.8843 22.5507 57.3225C18.835 54.7523 18 49.5368 18 49.5368C18 49.5368 23.177 48.477 26.8927 51.0472Z" stroke="#00A79E" stroke-width="3" stroke-miterlimit="10" stroke-linecap="round" stroke-linejoin="round"/>
<path d="M26.8927 63.348C30.6084 65.9182 31.4434 71.1337 31.4434 71.1337C31.4434 71.1337 26.2664 72.1852 22.5507 69.6233C18.835 67.0614 18 61.8376 18 61.8376C18 61.8376 23.177 60.7778 26.8927 63.348Z" stroke="#00A79E" stroke-width="3" stroke-miterlimit="10" stroke-linecap="round" stroke-linejoin="round"/>
<path d="M36.537 51.0472C32.8213 53.6174 31.9863 58.8329 31.9863 58.8329C31.9863 58.8329 37.1633 59.8843 40.879 57.3225C44.5947 54.7523 45.4297 49.5368 45.4297 49.5368C45.4297 49.5368 40.2528 48.477 36.537 51.0472Z" stroke="#00A79E" stroke-width="3" stroke-miterlimit="10" stroke-linecap="round" stroke-linejoin="round"/>
<path d="M36.537 63.348C32.8213 65.9182 31.9863 71.1337 31.9863 71.1337C31.9863 71.1337 37.1633 72.1852 40.879 69.6233C44.5947 67.0614 45.4297 61.8376 45.4297 61.8376C45.4297 61.8376 40.2528 60.7778 36.537 63.348Z" stroke="#00A79E" stroke-width="3" stroke-miterlimit="10" stroke-linecap="round" stroke-linejoin="round"/>
<path d="M351.434 48.7821C364.376 48.7821 374.868 38.2969 374.868 25.3627C374.868 12.4286 364.376 1.94336 351.434 1.94336C338.492 1.94336 328 12.4286 328 25.3627C328 38.2969 338.492 48.7821 351.434 48.7821Z" stroke="#00A79E" stroke-width="3" stroke-miterlimit="10" stroke-linecap="round" stroke-linejoin="round"/>
<path d="M351.434 41.9231C360.586 41.9231 368.005 34.5084 368.005 25.3619C368.005 16.2155 360.586 8.80078 351.434 8.80078C342.282 8.80078 334.862 16.2155 334.862 25.3619C334.862 34.5084 342.282 41.9231 351.434 41.9231Z" stroke="#00A79E" stroke-width="3" stroke-miterlimit="10" stroke-linecap="round" stroke-linejoin="round"/>
<path d="M351.434 33.7729C356.081 33.7729 359.849 30.0076 359.849 25.363C359.849 20.7184 356.081 16.9531 351.434 16.9531C346.786 16.9531 343.019 20.7184 343.019 25.363C343.019 30.0076 346.786 33.7729 351.434 33.7729Z" stroke="#00A79E" stroke-width="3" stroke-miterlimit="10" stroke-linecap="round" stroke-linejoin="round"/>
<path d="M351.434 86.0938V41.9238" stroke="#00A79E" stroke-width="3" stroke-miterlimit="10" stroke-linecap="round" stroke-linejoin="round"/>
</svg>

<svg width="377" height="102" viewBox="0 0 377 102" fill="none" xmlns="http://www.w3.org/2000/svg"><path d="M375 87H2m257.197 14.145h-96.519m-18.082 0H107.51m76.752-15.408v-5.555m12.431 5.555V73.303M31.986 86.071V49.988m3.817-7.818c0 4.514-3.816 8.17-3.816 8.17s-3.816-3.656-3.816-8.17c0-4.515 3.816-8.17 3.816-8.17s3.816 3.655 3.816 8.17zm-8.91 8.877c3.715 2.57 4.55 7.786 4.55 7.786s-5.177 1.051-8.892-1.51C18.835 54.752 18 49.536 18 49.536s5.177-1.06 8.893 1.51zm0 12.301c3.715 2.57 4.55 7.786 4.55 7.786s-5.177 1.051-8.892-1.51C18.835 67.06 18 61.837 18 61.837s5.177-1.06 8.893 1.51zm9.644-12.301c-3.716 2.57-4.55 7.786-4.55 7.786s5.176 1.051 8.892-1.51c3.716-2.57 4.55-7.786 4.55-7.786s-5.176-1.06-8.892 1.51zm0 12.301c-3.716 2.57-4.55 7.786-4.55 7.786s5.176 1.051 8.892-1.51c3.716-2.563 4.55-7.786 4.55-7.786s-5.176-1.06-8.892 1.51zm314.897-14.566c12.942 0 23.434-10.485 23.434-23.42 0-12.933-10.492-23.419-23.434-23.419S328 12.43 328 25.363c0 12.934 10.492 23.42 23.434 23.42z" stroke="#00A79E" stroke-width="3" stroke-miterlimit="10" stroke-linecap="round" stroke-linejoin="round"/><path d="M351.434 41.923c9.152 0 16.571-7.415 16.571-16.561S360.586 8.8 351.434 8.8c-9.152 0-16.572 7.414-16.572 16.56 0 9.147 7.42 16.562 16.572 16.562z" stroke="#00A79E" stroke-width="3" stroke-miterlimit="10" stroke-linecap="round" stroke-linejoin="round"/><path d="M351.434 33.773c4.647 0 8.415-3.765 8.415-8.41s-3.768-8.41-8.415-8.41c-4.648 0-8.415 3.765-8.415 8.41s3.767 8.41 8.415 8.41zm0 52.321v-44.17" stroke="#00A79E" stroke-width="3" stroke-miterlimit="10" stroke-linecap="round" stroke-linejoin="round"/></svg>
